src/assets/icons/nav_board.svg

<svg width="25" height="25" viewBox="0 0 25 25" fill="none" xmlns="http://www.w3.org/2000/svg">
<path d="M19.7917 3.12496H15.4375C15 1.91663 13.8542 1.04163 12.5 1.04163C11.1458 1.04163 10 1.91663 9.5625 3.12496H5.20833C4.0625 3.12496 3.125 4.06246 3.125 5.20829V19.7916C3.125 20.9375 4.0625 21.875 5.20833 21.875H19.7917C20.9375 21.875 21.875 20.9375 21.875 19.7916V5.20829C21.875 4.06246 20.9375 3.12496 19.7917 3.12496ZM12.5 3.12496C13.0729 3.12496 13.5417 3.59371 13.5417 4.16663C13.5417 4.73954 13.0729 5.20829 12.5 5.20829C11.9271 5.20829 11.4583 4.73954 11.4583 4.16663C11.4583 3.59371 11.9271 3.12496 12.5 3.12496ZM13.5417 17.7083H8.33333C7.76042 17.7083 7.29167 17.2395 7.29167 16.6666C7.29167 16.0937 7.76042 15.625 8.33333 15.625H13.5417C14.1146 15.625 14.5833 16.0937 14.5833 16.6666C14.5833 17.2395 14.1146 17.7083 13.5417 17.7083ZM16.6667 13.5416H8.33333C7.76042 13.5416 7.29167 13.0729 7.29167 12.5C7.29167 11.927 7.76042 11.4583 8.33333 11.4583H16.6667C17.2396 11.4583 17.7083 11.927 17.7083 12.5C17.7083 13.0729 17.2396 13.5416 16.6667 13.5416ZM16.6667 9.37496H8.33333C7.76042 9.37496 7.29167 8.90621 7.29167 8.33329C7.29167 7.76038 7.76042 7.29163 8.33333 7.29163H16.6667C17.2396 7.29163 17.7083 7.76038 17.7083 8.33329C17.7083 8.90621 17.2396 9.37496 16.6667 9.37496Z" fill="#DADADA"/>
</svg>

<svg width="25" height="25" fill="none" xmlns="http://www.w3.org/2000/svg"><path d="M19.792 3.125h-4.355C15 1.917 13.854 1.042 12.5 1.042c-1.354 0-2.5.875-2.938 2.083H5.208a2.09 2.09 0 0 0-2.083 2.083v14.584a2.09 2.09 0 0 0 2.083 2.083h14.584a2.09 2.09 0 0 0 2.083-2.083V5.208a2.09 2.09 0 0 0-2.083-2.083Zm-7.292 0c.573 0 1.042.469 1.042 1.042 0 .573-.47 1.041-1.042 1.041a1.045 1.045 0 0 1-1.042-1.041c0-.573.47-1.042 1.042-1.042Zm1.042 14.583H8.333a1.045 1.045 0 0 1-1.041-1.041c0-.573.468-1.042 1.041-1.042h5.209c.573 0 1.041.469 1.041 1.042 0 .572-.468 1.041-1.041 1.041Zm3.125-4.166H8.333A1.045 1.045 0 0 1 7.292 12.5c0-.573.468-1.042 1.041-1.042h8.334c.573 0 1.041.469 1.041 1.042 0 .573-.468 1.042-1.041 1.042Zm0-4.167H8.333a1.045 1.045 0 0 1-1.041-1.042c0-.573.468-1.041 1.041-1.041h8.334c.573 0 1.041.468 1.041 1.041s-.468 1.042-1.041 1.042Z" fill="#DADADA"/></svg>
